svg/fluentui-system-icons/ic_fluent_showerhead_32_regular.svg

<svg width="32" height="32" viewBox="0 0 32 32" fill="none" xmlns="http://www.w3.org/2000/svg">
<path d="M20.5075 7.07034C16.9957 5.2969 12.6562 5.72705 9.54591 8.36079C8.37838 7.78265 6.92444 7.97974 5.95218 8.95204C4.73281 10.1715 4.73284 12.1485 5.95225 13.3679L18.6559 26.0715C19.8753 27.2909 21.8524 27.2908 23.0718 26.0715C24.0531 25.0901 24.2447 23.6181 23.6465 22.4452C26.2757 19.3331 26.702 14.9941 24.9254 11.4842L28.0791 8.33039C29.2985 7.11098 29.2985 5.13395 28.0791 3.91456C26.8597 2.69515 24.8827 2.69515 23.6632 3.91456L20.5075 7.07034ZM11.0951 9.67889C14.2334 7.23725 18.7724 7.45863 21.6569 10.343C24.5413 13.2274 24.7626 17.7664 22.321 20.9048L11.0951 9.67889ZM7.36643 10.3662C7.79186 9.94077 8.47384 9.9282 8.91442 10.3285L21.6952 23.1094C22.0955 23.5499 22.083 24.2318 21.6576 24.6572C21.2192 25.0956 20.5085 25.0956 20.0701 24.6572L7.36645 11.9537C6.92809 11.5153 6.92807 10.8046 7.36643 10.3662ZM22.2298 8.17639L25.0775 5.32877C25.5158 4.89041 26.2265 4.89041 26.6649 5.32877C27.1032 5.76712 27.1032 6.47783 26.6649 6.91619L23.818 9.76316C23.5873 9.47472 23.3383 9.19609 23.0711 8.92883C22.8017 8.65943 22.5207 8.40862 22.2298 8.17639ZM7.70711 19.7071C8.09763 19.3166 8.09763 18.6834 7.70711 18.2929C7.31658 17.9024 6.68342 17.9024 6.29289 18.2929L3.29289 21.2929C2.90237 21.6834 2.90237 22.3166 3.29289 22.7071C3.68342 23.0976 4.31658 23.0976 4.70711 22.7071L7.70711 19.7071ZM10.7071 21.2929C11.0976 21.6834 11.0976 22.3166 10.7071 22.7071L7.70711 25.7071C7.31658 26.0976 6.68342 26.0976 6.29289 25.7071C5.90237 25.3166 5.90237 24.6834 6.29289 24.2929L9.29289 21.2929C9.68342 20.9024 10.3166 20.9024 10.7071 21.2929ZM13.7071 25.7071C14.0976 25.3166 14.0976 24.6834 13.7071 24.2929C13.3166 23.9024 12.6834 23.9024 12.2929 24.2929L9.29289 27.2929C8.90237 27.6834 8.90237 28.3166 9.29289 28.7071C9.68342 29.0976 10.3166 29.0976 10.7071 28.7071L13.7071 25.7071Z" fill="#212121"/>
</svg>

<svg xmlns="http://www.w3.org/2000/svg" width="32" height="32"><path d="M20.508 7.07c-3.512-1.773-7.852-1.343-10.962 1.29a3.124 3.124 0 0 0-3.594 5.008l12.704 12.704a3.123 3.123 0 0 0 4.99-3.627c2.63-3.112 3.056-7.45 1.28-10.96l3.153-3.155a3.122 3.122 0 1 0-4.416-4.415L20.508 7.07Zm-9.413 2.61a8.001 8.001 0 0 1 11.226 11.226L11.095 9.679Zm-3.729.687a1.123 1.123 0 0 1 1.548-.037l12.781 12.78a1.122 1.122 0 0 1-1.625 1.548L7.366 11.954a1.123 1.123 0 0 1 0-1.588Zm14.864-2.19 2.848-2.847a1.122 1.122 0 1 1 1.587 1.587l-2.847 2.847a10.123 10.123 0 0 0-1.588-1.587ZM7.707 19.707a1 1 0 1 0-1.414-1.414l-3 3a1 1 0 1 0 1.414 1.414l3-3Zm3 1.586a1 1 0 0 1 0 1.414l-3 3a1 1 0 0 1-1.414-1.414l3-3a1 1 0 0 1 1.414 0Zm3 4.414a1 1 0 0 0-1.414-1.414l-3 3a1 1 0 1 0 1.414 1.414l3-3Z"/></svg>
